X:1
T:Title
%%score ( 1 2 ) ( 3 4 )
L:1/8
Q:1/4=170
M:3/2
K:G
V:1 treble nm="Choir Aahs, Staff"
V:2 treble 
V:3 bass nm="Choir Aahs, Staff-1"
V:4 bass 
V:1
 [EB]4 [EB]4 [EB]4 | [Ec]8 [DA]4 | [B,B]8 [B,G]4 | [B,F]12 | [B,F]4 [B,G]4 [DA]4 | [DB]8 E4 | %6
w: By~Orlando~Gibbons * *||||||
 A8 z4 | [CA]12 | [EB]4 [Ec]4 [DB]4 | [Dd]8 [B,G]4 | [DB]8 [EA]4 | [^DB]8 [DF]4 | %12
w: ||||||
 [^DF]4 [EG]4 [^CE]4 | [DA]8 D4 | G4 F8 | E12 |] %16
w: ||||
V:2
 x12 | x12 | x12 | x12 | x12 | x12 | D4 C4 [B,^G]4 | x12 | x12 | x12 | x12 | x12 | x12 | x12 | %14
 E8 ^D4 | x12 |] %16
V:3
 [E,G,]4 [E,G,]4 [E,G,]4 | [A,,A,]8 [D,F,]4 | F,4 E,4 E,2- [A,,E,]2 | [B,,^D,]12 | %4
 [B,,^D,]4 E,4 [=D,F,]4 | [G,,G,]8 [C,G,]4 | [D,=F,]4 E,4 E,4 | [A,,E,]12 | %8
 [E,^G,]4 [A,,A,]4 [D,F,]4 | [B,,G,]8 [E,G,]4 | G,4 F,4 [C,E,]4 | [B,,F,]8 [B,,B,]4 | %12
 B,4- [E,B,]4 A,4 | [F,A,]8 [G,B,]4 | [E,B,]4 [B,,B,]8 | [E,G,]12 |] %16
V:4
 x12 | x12 | G,,8 .G,,4 | x12 | x12 | x12 | x12 | x12 | x12 | x12 | D,8 z4 | x12 | B,,4 z4 z4 | %13
 x12 | x12 | x12 |] %16

